X: 1
T: Miller's Maggot, The
M: 6/8
L: 1/8
R: jig
K: Gmaj
|:G2 A B2 A|B2 A BGE|G2 A B2 A|Bee dBA|
|G2 A B2 A|B2 A BGE|gfe dBA|Bee dBA:|
|:e2 f fge|d2 B BAG|e2 f fgg|aga bge|
|e2 f fge|d2 B BAG|A2 B cBA|Bee dBA:|
